X: 4260
T: DRUMMOND CASTLE
%R: jig
B: James Kerr "Merry Melodies" v.4 p.28 #260
Z: 2016 John Chambers <jc:trillian.mit.edu>
M: 6/8
L: 1/8
K: Am
B |\
ABA a3 | ag^f g3  | ege gdB | GBg dBG |\
ABA a3 | age  g3  | e3  deg | edB A2 :|
|: B |\
cdc cec | ded ded | cdc edc | Bdg dBG |\
cdc edc | deg a2g | ege deg | edB A2 :|

%%sep 1 1 500
%%sep 1 1 500

